X:1
T:Ich hebe meine Augen auf
T:Jakob Heinrich Lützel
T:Psalm 121
T:Ich hebe meine Augen auf
T:CPDL - Creative Commons Attribution Non Commercial 3.0
T:CPDL - Creative Commons Attribution Non Commercial 3.0
T:CPDL - Creative Commons Attribution Non Commercial 3.0
C:Jakob Heinrich Lützel
Z:Psalm 121
Z:CPDL - Creative Commons Attribution Non Commercial 3.0
%%score [ ( 1 2 ) 3 4 ]
L:1/8
Q:1/4=90
M:4/4
K:F
V:1 treble nm="Sopran\nAlt"
V:2 treble 
V:3 treble-8 nm="Tenor"
V:4 bass nm="Bass"
V:1
!p!"^Soli, Wiederholung Chor.""^Langsam" A2 | A3 A c2 A2 |!<(! F2 G2!<)! !breath!A2!mf! A>A | %3
w: Ich|he- be mei- ne|Au- gen auf zu den|
 B4!>(! !breath!A2!>)!!p! A2 |!>(! A4 !breath!G2!>)!!mf! G>!<(!G | (A2 B2)!<)! !breath!c2!f! c>c | %6
w: Ber- gen, den|Ber- gen, zu den|Ber- * gen, zu den|
 f4!>(! !breath!e2!>)!!f! c2 | A2 d>c!>(! c2 =B2 | c4!>)! z2 :|!p!"^Soli" c>c | %10
w: Ber- gen, von|wel- chen mir Hil- fe|kommt.|Mei- ne|
 G3 G!<(! G2 A2!<)! | !breath!B6!p! B>B | F3 F!<(! F2 G2!<)! | A6 |!f!"^Chor" c>c | !>!f3 f e2 d2 | %16
w: Hil- fe kommt vom|Herrn, mei- ne|Hil- fe kommt vom|Herrn,|mei- ne|Hil- fe kommt vom|
 !breath!c4!>(! B4 | !breath!A4!>)!!<(! d4!<)! | !breath!!^!^c4!p!"^Soli" c4 | !breath!d4 =c4 | %20
w: Herrn, vom|Herrn, vom|Herrn, vom|Herrn, der|
 B4 A2 F2 | A4 G2!>(! G2 | F4!>)! z2"^Chor"!p! A2 | A3 A c2 A2 |!<(! F2 G2!<)! !breath!A2 A>A | %25
w: Him- mel und|Er- de ge-|macht. Ich|he- be mei- ne|Au- gen auf zu den|
 B4!>(! !breath!A2!>)!!p! A2 |!>(! A4 !breath!G2!>)!!<(! G>G | (A2 B2)!<)! !breath!c2 c2 | %28
w: Ber- gen, den|Ber- gen, zu den|Ber- * gen, den|
!<(! c4!<)! !breath!c2!f! f2 | d2 d>d!>(! c2 B2!>)! |!<(! (A4 !breath!B2)!<)! c2 | %31
w: * * von|wel- chen mir Hil- fe|kommt, _ mir|
 (!>!d2 B2) !breath!A2 G2 | (A4!>(! G3) F | !fermata!F4!>)! z2 |] %34
w: Hil- * fe, mir|Hil- * fe|kommt.|
V:2
 F2 | F3 F G2 E2 | D2 E2 F2 F>F | (F2 G2) F2 F2 | F4 E2 E>E | F2 G2 A2 A>G | (A2 G2) G2 G2 | %7
w: |||||||
 F2 A>G G2 F2 | E4 x2 :| E>E | E3 E E2 F2 | G6 D>D | D3 D D2 E2 | F6 | A>G | F3 A A2 F2 | A4 G4 | %17
w: ||||||||||
 F4 !>!F2 !>!G2 | A4 (A2 G2) | F4 A4 | (D2 E2) F2 F2 | F4 E2 E2 | F4 x2 F2 | F3 F G2 E2 | %24
w: * kommt vom|Herrn, * *||||||
 D2 E2 F2 F>F | (F2 G2) F2 F2 | F4 E2 C>C | (F2 G2) A2 E>E | (F2 E2) F2 F2 | F2 F>F E2 E2 | F6 F2 | %31
w: |||* * * zu den|Ber- * gen, *|||
 F4 F2 F2 | (F4 E3) F | F4 x2 |] %34
w: |||
V:3
!p! c2 | c3 c c2 c2 |!<(! A2 c2!<)! !breath!c2!mf! c>c | (d2!>(! c2) !breath!c2!>)!!p! c>c | %4
w: Ich|he- be mei- ne|Au- gen auf zu den|Ber- * gen, zu den|
!>(! c4 !breath!c2!>)!!mf! c>!<(!c | (c2 B2)!<)! !breath!A2!f! c>c | %6
w: Ber- gen, zu den|Ber- * gen, zu den|
 (c2!>(! =B2) !breath!c2!>)!!f! c2 | c2 f>e!>(! e2 d2 | c4!>)! z2 :|!p! c>c | c3 c!<(! _B2 A2!<)! | %11
w: Ber- * gen, von|wel- chen mir Hil- fe|kommt.|Mei- ne|Hil- fe kommt vom|
 !breath!G6!p! G>G | B3 B!<(! A2 G2!<)! | F6 |!f! F>G | !>!A3 A c2 d2 | !breath!f4!>(! d4 | %17
w: Herrn, mei- ne|Hil- fe kommt vom|Herrn,|mei- ne|Hil- fe kommt vom|Herrn, vom|
 !breath!d4!>)!!<(! d4!<)! | !breath!!^!e4!p! A4 | !breath!B4 F4 | G4 A2 d2 | c4 c2!>(! B2 | %22
w: Herrn, vom|Herrn, vom|Herrn, der|Him- mel und|Er- de ge-|
 A4!>)! z2!p! c2 | c3 c c2 c2 |!<(! A2 c2!<)! !breath!c2 c>c | (d2!>(! c2) !breath!c2!>)!!p! c>c | %26
w: macht. Ich|he- be mei- ne|Au- gen auf zu den|Ber- * gen, zu den|
!>(! c4 !breath!c2!>)! z2 | z4 z2!mf! G>G |!<(! (A2 B2)!<)! !breath!c2!f! c2 | %29
w: Ber- gen,|zu den|Ber- * gen, von|
 d2 B>A!>(! G2 G2!>)! |!<(! (F2 _e2 !breath!d2)!<)! c2 | (!>!B2 d2) !breath!d2 d2 | (c4!>(! B3) A | %33
w: wel- chen mir Hil- fe|kommt. _ _ mir|Hil- * fe, mir|Hil- * fe|
 !fermata!A4!>)! z2 |] %34
w: kommt.|
V:4
!p! F,2 | F,3 F, E,2 C,2 |!<(! D,2 C,2!<)! !breath!F,2!mf! F,>F, | %3
w: |||
 (D,2!>(! E,2) !breath!F,2!>)!!p! A,,>B,, |!>(! C,4 !breath!C,2!>)!!mf! C>!<(!B, | %5
w: ||
 (A,2 G,2)!<)! !breath!F,2!f! F,>E, | D,4!>(! !breath!C,2!>)!!f! E,2 | F,2 F,>G,!>(! G,2 G,,2 | %8
w: |||
 C,4!>)! z2 :| z2 | z8 | z8 | z8 | z6 |!f! F,>E, | !>!D,3 D, A,2 B,2 | !breath!F,4!>(! G,4 | %17
w: |||||||||
 !breath!D,4!>)!!<(! B,,4!<)! | !^!A,,4 z4 | z8 | z8 | z4 z2!p!"^Chor" C,2 | F,4 !breath!F,2 F,2 | %23
w: ||||Ich|he- be, ich|
 F,3 F, E,2 C,2 |!<(! D,2 C,2!<)! !breath!F,2 F,>F, | (D,2!>(! E,2) !breath!F,2!>)!!p! A,,>B,, | %26
w: |||
!>(! C,4 !breath!C,2!>)! z2 | z4 z2!mf! C,>C, |!<(! (F,2 G,2)!<)! !breath!A,2!f! A,2 | %29
w: |||
 B,2 B,,>B,,!>(! C,2 C,2!>)! |!<(! (D,2 C,2 !breath!B,,2)!<)! A,,2 | !>!B,,4 !breath!B,,2 =B,,2 | %32
w: |||
 (C,4!>(! C,3) F, | !fermata!F,4!>)! z2 |] %34
w: ||

